X:1
T:Title
%%score { ( 1 3 ) | ( 2 4 ) }
L:1/8
M:4/4
K:G
V:1 treble nm="Grand Piano"
V:3 treble 
V:2 bass 
V:4 bass 
V:1
 z4 z2[Q:1/4=106] D2 | B2 A2 G2 [DF]2 | [CE]6 [DE]2 | [Cc]2 [DB]2 [EA]2 [^DG]2 | F6 D2 | %5
 D2 [Dd]2 [DB]2 [DG]2 | E2 [Ee]2 [Ec]2 [EA]2 | [DG]4 [FA]4 | B6 D2 | D2 d2 B2 [DG]2 | %10
 E2 [Ee]2 [Ec]2 [CEA]2 | z4 B2 z2 |[M:3/4] [B,G]6 |[M:1/4] B2 |[M:4/4] B2 [B,DB]2 [B,EB]2 [B,FA]2 | %15
 [B,FA]2 [B,EG]4 [DGB]2 | B2 A2 B2 ^c2 | [Fd]6 [Fc]2 | [GB]2 [GB]2 [^Ge]2 [GB]2 | %19
[M:19/16] [Ed]-<[Ed][Ec]-<[Ec][^DB]/-[DB]/-[DB]/-[DB]/-[DB]/-[DB]-<[DB][DA][Q:1/4=103][Q:1/4=99][Q:1/4=96][Q:1/4=93][Q:1/4=89][Q:1/4=86][Q:1/4=83] | %20
[M:4/4] G2 G2 G F3 |[M:3/4] [B,G]6 |] %22
V:2
 z4 z2 [G,B,]2 | [G,B,D]2 [G,B,D]2 [G,B,D]2 [B,,G,]2 | [C,G,]6 [B,,^G,]2 | %3
 [A,,A,]2 [B,,^G,]2 [C,A,]2 [C,A,]2 | [D,A,D]6 [C,F,]2 | [B,,G,]2 [B,,G,]2 [B,,G,]2 [B,,G,]2 | %6
 [C,G,]2 [C,^G,]2 [C,A,]2 [C,C]2 | [D,B,]4 [D,D]4 | [G,DG]6 [A,C]2 | %9
 [G,B,]2 [G,B,D]2 [G,B,D]2[K:bass] [B,,G,]2 | [C,G,]2 [C,^G,]2 [C,A,]2 C,2 | D,4 z2[K:treble] A2 | %12
[M:3/4] G,6 |[M:1/4][K:bass] B,2 |[M:4/4] B,2 B,,2 ^C,2 ^D,2 | E,2 E,4 E,2 | %16
 [A,DG]2 [A,^CG]2 [A,DG]2 [A,EG]2 | [D,D]6 [D,D]2 | [G,D]2 [G,D]2 [E,D]2 [E,D]2 | %19
[M:19/16] [A,C]-<[A,C][A,C]-<[A,C][C,C]/-[C,C]/-[C,C]/-[C,C]/-[C,C]/-[C,C]-<[C,C][C,C] | %20
[M:4/4] [D,B,D]2 [D,_B,^C]2 [D,A,=C] [D,A,C]3 |[M:3/4] [G,,G,]6 |] %22
V:3
 x8 | x8 | x8 | x8 | x8 | x8 | x8 | x8 | x8 | x8 | x8 | [B,DG]4 [CF]4 |[M:3/4] x6 |[M:1/4] x2 | %14
[M:4/4] x8 | x8 | x8 | x8 | x8 |[M:19/16] x19/2 |[M:4/4] x8 |[M:3/4] x6 |] %22
V:4
 x8 | x8 | x8 | x8 | x8 | x8 | x8 | x8 | x8 | x6[K:bass] x2 | x8 | z4 D,4[K:treble] |[M:3/4] x6 | %13
[M:1/4][K:bass] x2 |[M:4/4] x8 | x8 | x8 | x8 | x8 |[M:19/16] x19/2 |[M:4/4] x8 |[M:3/4] x6 |] %22

